X:1
T:James Gibb editions
T:Up now, my soul, 'tis day - Barnby
%%score [ ( 1 2 ) ( 3 4 ) ]
L:1/8
Q:1/4=100
M:4/4
K:C
V:1 treble nm="Midi_1"
V:2 treble 
V:3 bass nm="Midi_1"
V:4 bass 
V:1
"^Up now, my soul, 'tis day""^66. 84""^Joseph Barnby\n(1838-96)"!f! G2 | c2 c2 c2 d2 | c6 || c2 | %4
 B2 d2 B2 A2 | G6 ||[M:4/4] G2 | G2 _B2 A2 G2 | A2 B2 c2 || d2 | (G2 A2)!f! B4 | c6 || c4 c4 |] %13
V:2
 G2 | E2 G2 D2 F2 | E6 || A2 | G2 G2 G2 ^F2 | G6 ||[M:4/4] G2 | G2 E2 E2 E2 | C2 E2 E2 || D2 | %10
 (E2 G2) F4 | E6 || F4 E4 |] %13
V:3
 G,2 | C2 C2 C2 B,2 | C6 || D2 | D2 D2 D2 C2 | B,6 ||[M:4/4]"^dim." B,2 | C2 G,2 A,2 _B,2 | %8
 A,2"^cresc." ^G,2 A,2 || A,2 | (C2 E2) D4 | C6 || A,4 G,4 |] %13
V:4
 G,2 | C,2 E,2 G,2 G,2 | C6 || ^F,2 | G,2 B,,2 D,2 D,2 | G,6 ||[M:4/4] F,2 | E,2 C,2 C,2 C,2 | %8
 F,2 E,2 A,2 || F,2 | G,4 G,4 | C,6 || F,4 C,4 |] %13

